X: 134003
T: MISS BRADY
Q: "Irish Reel."
R: Reel.
%R: reel
B: James Kerr "Merry Melodies" v.1 p.34 s.0 #3
Z: 2016 John Chambers <jc:trillian.mit.edu>
M: C
L: 1/8
K: Em
uE |\
EFGA BAB^c | dDDE FEFD |\
EFGA BAGF | GBAF GEE ::\
ue |\
efge fafd | efge fddf |\
e2(Bc) BAGF | GBAF GEE :|

%%sep 1 1 500
%%sep 1 1 500

